X:2370
T:Car Juan Nan 
C:Traditional
O:Isle of Man
N:Like Morpeth Rant
Z:Kiaull Vannin 370 
M:2/4 
L:1/8 
Q:200 
K:D 
A2|d2 AG|FDFA|BGBd|cABc|d2 AG|FDFA|Bd ce|d2 A2| 
d2 AG|FDFA|BGBd|cABc|d2 AG|FDFA|Bd ce|d4 |
f2 fe|fg a2|gfed|efge |f2 ff|fgaf|edcB|A2 A2| 
d2 AG|FDFA|BGBd|cABc|d2 AG|FDFA|Bd ce|d2|| 

